korla/apps/scalable/slack.svg

<!DOCTYPE svg  PUBLIC '-//W3C//DTD SVG 1.1//EN'  'http://www.w3.org/Graphics/SVG/1.1/DTD/svg11.dtd'>
<svg style="clip-rule:evenodd;fill-rule:evenodd" version="1.1" viewBox="0 0 64 64" xmlns="http://www.w3.org/2000/svg">
 <g transform="matrix(0,-1,-1,0,0,0)">
  <path d="m-4-55.8c0-2.318-1.882-4.2-4.2-4.2h-47.6c-2.318 0-4.2 1.882-4.2 4.2v47.6c0 2.318 1.882 4.2 4.2 4.2h47.6c2.318 0 4.2-1.882 4.2-4.2v-47.6z" style="fill-opacity:.2"/>
 </g>
 <g transform="matrix(.961262 -.275637 .275637 .961262 0 0)">
  <rect x="7.26" y="23.08" width="30.182" height="30.182" style="fill:rgb(244,241,239);stroke-width:2.8px;stroke:rgb(244,241,239)"/>
 </g>
 <path d="m5.698 19.8c-0.579-1e-3 -1.139 0.028-1.698 0.036v35.978c0 0.311 0.038 0.611 0.101 0.902 6.201-0.553 12.255-1.912 17.552-7.434l-8.32-29.014c-2.709-0.306-5.254-0.464-7.635-0.468z" style="fill-rule:nonzero;fill:rgb(72,195,158)"/>
 <path d="m50.668 40.8l-29.014 8.321c-0.924 3.78-0.948 7.333-0.35 10.732h34.496c0.846 0 1.628-0.255 2.286-0.681-0.222-6.687-0.821-13.279-7.419-18.372h1e-3z" style="fill-rule:nonzero;fill:rgb(216,23,104)"/>
 <path d="m58.316 4.8c-6.537 0.626-12.588 1.945-15.969 7.079l8.321 29.014c3.315 0.685 6.402 0.745 9.332 0.37v-33.116c0-1.377-0.666-2.582-1.684-3.347z" style="fill-rule:nonzero;fill:rgb(236,181,36)"/>
 <path d="m8.2 4c-0.84 0-1.617 0.252-2.272 0.673 1.378 5.381 3.924 10.561 7.404 15.58l29.014-8.32c1.169-2.948 1.502-5.545 1.326-7.933h-35.473 1e-3z" style="fill-rule:nonzero;fill:rgb(129,210,224)"/>
 <path d="m21.654 49.2l-17.653 5.061v1.471c0 2.327 1.873 4.2 4.2 4.2h16.532l-3.079-10.732z" style="fill-rule:nonzero;fill:rgb(57,15,57)"/>
 <path d="M8.2,4C5.873,4 4,5.873 4,8.2L4,22.93L13.332,20.253L8.673,4L8.2,4L8.2,4Z" style="fill-rule:nonzero;fill:rgb(32,164,142)"/>
 <path d="m40.072 4l2.275 7.933 17.44-4.999c-0.538-1.7-2.105-2.934-3.987-2.934h-15.728z" style="fill-rule:nonzero;fill:rgb(119,151,31)"/>
 <path d="m60 38.2l-9.333 2.677 5.453 19.02c2.173-0.166 3.88-1.95 3.88-4.167v-17.53z" style="fill-rule:nonzero;fill:rgb(213,16,13)"/>
 <path d="m7 4c-1.662 0-3 1.338-3 3v1c0-1.662 1.338-3 3-3h50c1.662 0 3 1.338 3 3v-1c0-1.662-1.338-3-3-3h-50z" style="fill-opacity:.1;fill-rule:nonzero;fill:white"/>
 <path d="m38.966 36c0 1.923-0.634 3.398-1.9 4.424-1.258 1.027-3.116 1.54-5.576 1.54-1.701 0-3.181-0.282-4.438-0.846-1.248-0.564-2.265-1.475-3.051-2.732l3.009-2.386c1.294 1.448 2.881 1.963 4.563 2.096 1.064 0 1.891-0.18 2.483-0.541 0.601-0.369 0.944-0.529 0.944-1.278 0-0.425-0.149-0.781-0.362-1.068-0.203-0.286-0.513-0.531-0.929-0.735-0.416-0.212-1.137-0.453-2.163-0.721-0.999-0.268-2.342-0.536-3.23-0.804-0.878-0.278-1.641-0.634-2.288-1.068-0.638-0.435-1.142-0.98-1.512-1.637-0.37-0.656-0.555-1.484-0.555-2.482 0-1.822 0.615-3.241 1.845-4.258 1.229-1.027 3.391-1.54 5.684-1.54 3.32 0 5.668 1.138 7.046 3.412l-2.982 1.93c-0.527-0.813-1.119-1.396-1.775-1.747-0.657-0.352-1.438-0.527-2.344-0.527-1.961 0.024-3.115 0.509-3.466 2.338 0 0.62 0.296 1.196 0.888 1.529 0.592 0.323 2.023 0.652 3.493 0.985 0.814 0.212 1.618 0.443 2.413 0.693 0.796 0.24 1.503 0.578 2.122 1.013 0.629 0.434 1.133 1.003 1.512 1.705 0.379 0.703 0.569 1.605 0.569 2.705" style="fill-rule:nonzero;fill:rgb(90,56,86)"/>
</svg>

<?xml version="1.0" encoding="UTF-8" standalone="no"?>
<!DOCTYPE svg PUBLIC "-//W3C//DTD SVG 1.1//EN" "http://www.w3.org/Graphics/SVG/1.1/DTD/svg11.dtd">
<svg width="100%" height="100%" viewBox="0 0 64 64" version="1.1" xmlns="http://www.w3.org/2000/svg" xmlns:xlink="http://www.w3.org/1999/xlink" xml:space="preserve" xmlns:serif="http://www.serif.com/" style="fill-rule:evenodd;clip-rule:evenodd;">
    <g transform="matrix(0,-1,-1,0,0,0)">
        <path d="M-4,-55.8C-4,-58.118 -5.882,-60 -8.2,-60L-55.8,-60C-58.118,-60 -60,-58.118 -60,-55.8L-60,-8.2C-60,-5.882 -58.118,-4 -55.8,-4L-8.2,-4C-5.882,-4 -4,-5.882 -4,-8.2L-4,-55.8Z" style="fill-opacity:0.2;"/>
    </g>
    <g transform="matrix(0.961262,-0.275637,0.275637,0.961262,0,0)">
        <rect x="7.26" y="23.08" width="30.182" height="30.182" style="fill:rgb(244,241,239);stroke:rgb(244,241,239);stroke-width:2.8px;"/>
    </g>
    <path d="M5.698,19.8C5.119,19.799 4.559,19.828 4,19.836L4,55.814C4,56.125 4.038,56.425 4.101,56.716C10.302,56.163 16.356,54.804 21.653,49.282L13.333,20.268C10.624,19.962 8.079,19.804 5.698,19.8L5.698,19.8Z" style="fill:rgb(72,195,158);fill-rule:nonzero;"/>
    <path d="M50.668,40.8L21.654,49.121C20.73,52.901 20.706,56.454 21.304,59.853L55.8,59.853C56.646,59.853 57.428,59.598 58.086,59.172C57.864,52.485 57.265,45.893 50.667,40.8L50.668,40.8Z" style="fill:rgb(216,23,104);fill-rule:nonzero;"/>
    <path d="M58.316,4.8C51.779,5.426 45.728,6.745 42.347,11.879L50.668,40.893C53.983,41.578 57.07,41.638 60,41.263L60,8.147C60,6.77 59.334,5.565 58.316,4.8L58.316,4.8Z" style="fill:rgb(236,181,36);fill-rule:nonzero;"/>
    <path d="M8.2,4C7.36,4 6.583,4.252 5.928,4.673C7.306,10.054 9.852,15.234 13.332,20.253L42.346,11.933C43.515,8.985 43.848,6.388 43.672,4L8.199,4L8.2,4Z" style="fill:rgb(129,210,224);fill-rule:nonzero;"/>
    <path d="M21.654,49.2L4.001,54.261L4.001,55.732C4.001,58.059 5.874,59.932 8.201,59.932L24.733,59.932L21.654,49.2Z" style="fill:rgb(57,15,57);fill-rule:nonzero;"/>
    <path d="M8.2,4C5.873,4 4,5.873 4,8.2L4,22.93L13.332,20.253L8.673,4L8.2,4L8.2,4Z" style="fill:rgb(32,164,142);fill-rule:nonzero;"/>
    <path d="M40.072,4L42.347,11.933L59.787,6.934C59.249,5.234 57.682,4 55.8,4L40.072,4L40.072,4Z" style="fill:rgb(119,151,31);fill-rule:nonzero;"/>
    <path d="M60,38.2L50.667,40.877L56.12,59.897C58.293,59.731 60,57.947 60,55.73L60,38.2Z" style="fill:rgb(213,16,13);fill-rule:nonzero;"/>
    <path d="M7,4C5.338,4 4,5.338 4,7L4,8C4,6.338 5.338,5 7,5L57,5C58.662,5 60,6.338 60,8L60,7C60,5.338 58.662,4 57,4L7,4Z" style="fill:white;fill-opacity:0.1;fill-rule:nonzero;"/>
    <path d="M38.966,36C38.966,37.923 38.332,39.398 37.066,40.424C35.808,41.451 33.95,41.964 31.49,41.964C29.789,41.964 28.309,41.682 27.052,41.118C25.804,40.554 24.787,39.643 24.001,38.386L27.01,36C28.304,37.448 29.891,37.963 31.573,38.096C32.637,38.096 33.464,37.916 34.056,37.555C34.657,37.186 35,37.026 35,36.277C35,35.852 34.851,35.496 34.638,35.209C34.435,34.923 34.125,34.678 33.709,34.474C33.293,34.262 32.572,34.021 31.546,33.753C30.547,33.485 29.204,33.217 28.316,32.949C27.438,32.671 26.675,32.315 26.028,31.881C25.39,31.446 24.886,30.901 24.516,30.244C24.146,29.588 23.961,28.76 23.961,27.762C23.961,25.94 24.576,24.521 25.806,23.504C27.035,22.477 29.197,21.964 31.49,21.964C34.81,21.964 37.158,23.102 38.536,25.376L35.554,27.306C35.027,26.493 34.435,25.91 33.779,25.559C33.122,25.207 32.341,25.032 31.435,25.032C29.474,25.056 28.32,25.541 27.969,27.37C27.969,27.99 28.265,28.566 28.857,28.899C29.449,29.222 30.88,29.551 32.35,29.884C33.164,30.096 33.968,30.327 34.763,30.577C35.559,30.817 36.266,31.155 36.885,31.59C37.514,32.024 38.018,32.593 38.397,33.295C38.776,33.998 38.966,34.9 38.966,36" style="fill:rgb(90,56,86);fill-rule:nonzero;"/>
</svg>
